X:1
T: Miss Fordyce of Ayton's Favourite Reel
C:R. Mackintosh
R:Reel
Q: 232
K:F
M:4/4
L:1/8
|:c|A2 FA Bd fB|Ac fa gG GB|A2 FA Bd fB|Ac BG AF Fc|
A2 FA Bd fB|Ac fa gG GB|A2 FA Bd fB|Ac BG AF Fc|
AF cA BG dB|Af cA BG GB|AF cA Bc de|fc dB AF FB|
AF cA BG dB|Ac ea gG GB|Ac f_e dB gf|e1/2f1/2g cb af f:|
